assets/img/braze_icons/line-chart-up-02.svg

<svg fill="none" height="24" viewBox="0 0 24 24" width="24" xmlns="http://www.w3.org/2000/svg"><g fill="#801ed7"><path d="m3.00001 2c.55228 0 1 .44772 1 1v16.4c0 .2965.00077.4588.0103.5754l.00114.0131.01319.0012c.11658.0095.27884.0103.57537.0103h16.39999c.5523 0 1 .4477 1 1s-.4477 1-1 1h-16.43184c-.25238 0-.49823.0001-.70638-.0169-.2286-.0187-.49833-.0628-.76976-.2011-.37632-.1917-.68228-.4977-.87403-.874-.1383-.2714-.18236-.5412-.20104-.7698-.01701-.2081-.01698-.4539-.01695-.7063l.00001-16.4319c0-.55228.44771-1 1-1z"/><path d="m20 9.41421v1.58579c0 .5523.4477 1 1 1s1-.4477 1-1v-4c0-.55228-.4477-1-1-1h-4c-.5523 0-1 .44772-1 1s.4477 1 1 1h1.5858l-3.5858 3.5858-1.7436-1.74359c-.0842-.08426-.1847-.18489-.2806-.26626-.111-.09429-.2796-.21984-.5123-.29543-.3012-.09788-.6258-.09788-.927 0-.2327.07559-.4013.20114-.5123.29543-.0959.08137-.1964.182-.2806.26626l-4.45071 4.45069c-.39052.3905-.39052 1.0237 0 1.4142.39053.3905 1.02369.3905 1.41422 0l4.29289-4.2929 1.7436 1.7436c.0842.0842.1847.1849.2806.2663.111.0942.2796.2198.5123.2954.3012.0979.6258.0979.927 0 .2327-.0756.4013-.2012.5123-.2954.0959-.0814.1964-.182.2806-.2663z"/></g></svg>

<svg width="24" height="24" viewBox="0 0 24 24" fill="none" xmlns="http://www.w3.org/2000/svg">
<path d="M3.00001 2C3.55229 2 4.00001 2.44772 4.00001 3V19.4C4.00001 19.6965 4.00078 19.8588 4.01031 19.9754L4.01145 19.9885L4.02464 19.9897C4.14122 19.9992 4.30348 20 4.60001 20H21C21.5523 20 22 20.4477 22 21C22 21.5523 21.5523 22 21 22L4.56816 22C4.31578 22 4.06993 22.0001 3.86178 21.9831C3.63318 21.9644 3.36345 21.9203 3.09202 21.782C2.7157 21.5903 2.40974 21.2843 2.21799 20.908C2.07969 20.6366 2.03563 20.3668 2.01695 20.1382C1.99994 19.9301 1.99997 19.6843 2 19.4319L2.00001 3C2.00001 2.44772 2.44772 2 3.00001 2Z" fill="#801ED7"/>
<path d="M20 9.41421V11C20 11.5523 20.4477 12 21 12C21.5523 12 22 11.5523 22 11V7C22 6.44772 21.5523 6 21 6H17C16.4477 6 16 6.44772 16 7C16 7.55228 16.4477 8 17 8H18.5858L15 11.5858L13.2564 9.84221C13.1722 9.75795 13.0717 9.65732 12.9758 9.57595C12.8648 9.48166 12.6962 9.35611 12.4635 9.28052C12.1623 9.18264 11.8377 9.18264 11.5365 9.28052C11.3038 9.35611 11.1352 9.48166 11.0242 9.57595C10.9283 9.65732 10.8278 9.75795 10.7436 9.84221L6.29289 14.2929C5.90237 14.6834 5.90237 15.3166 6.29289 15.7071C6.68342 16.0976 7.31658 16.0976 7.70711 15.7071L12 11.4142L13.7436 13.1578C13.8278 13.242 13.9283 13.3427 14.0242 13.4241C14.1352 13.5183 14.3038 13.6439 14.5365 13.7195C14.8377 13.8174 15.1623 13.8174 15.4635 13.7195C15.6962 13.6439 15.8648 13.5183 15.9758 13.4241C16.0717 13.3427 16.1722 13.2421 16.2564 13.1578L20 9.41421Z" fill="#801ED7"/>
</svg>
